src/assets/gardensLogoType.svg

<svg width="143" height="39" viewBox="0 0 143 39" fill="none" xmlns="http://www.w3.org/2000/svg">
<path d="M49.5126 27.7969L48.6693 29.7998C49.9606 30.4586 51.6208 30.9066 53.2284 30.9066C56.6016 30.9066 59.9484 29.22 59.9484 24.819V12.0377H57.4976V13.2763C57.4976 13.5135 57.5239 13.698 57.5239 13.698H57.4712C57.4712 13.698 56.4962 11.7215 53.2811 11.7215C49.5916 11.7215 47.457 14.5676 47.457 18.3888C47.457 22.2364 49.697 25.2143 53.4128 25.2143C55.3366 25.2143 56.5752 24.4501 57.3658 23.1324H57.4185C57.4185 23.1324 57.3922 23.5541 57.3922 23.9757V24.9508C57.3922 27.6652 55.4947 28.6929 53.1757 28.6929C51.1728 28.6929 49.5126 27.7969 49.5126 27.7969ZM53.9135 23.0006C51.5154 23.0006 50.0396 21.1032 50.0396 18.3361C50.0396 15.6218 51.3573 13.9352 53.6764 13.9352C55.7583 13.9352 57.4449 14.9366 57.4449 18.4152C57.4449 21.8938 55.7583 23.0006 53.9135 23.0006Z" fill="#164924"/>
<path d="M62.8676 21.6303C62.8676 24.292 65.1077 25.6887 67.4004 25.6887C70.5891 25.6887 71.6696 23.0534 71.6696 23.0534H71.7223C71.7223 23.0534 71.6696 23.5014 71.6696 24.1075V25.3724H74.0414V16.9394C74.0414 13.5662 72.1439 11.7215 68.7707 11.7215C65.7138 11.7215 63.79 13.3027 63.79 13.3027L64.8441 15.1738C64.8441 15.1738 66.5044 13.8825 68.5599 13.8825C70.2465 13.8825 71.4851 14.6204 71.4851 16.8077V17.0448H70.9053C68.6653 17.0448 62.8676 17.2293 62.8676 21.6303ZM65.4502 21.4985C65.4502 19.1004 68.9289 18.9686 70.8526 18.9686H71.5115V19.3903C71.5115 21.3668 70.1147 23.6331 67.9538 23.6331C66.2935 23.6331 65.4502 22.579 65.4502 21.4985Z" fill="#164924"/>
<path d="M77.871 25.3724H80.4273V19.9173C80.4273 19.1004 80.5063 18.2834 80.7435 17.5192C81.3496 15.5427 82.8517 14.3832 84.4856 14.3832C84.8809 14.3832 85.2235 14.4622 85.2235 14.4622V11.9323C85.2235 11.9323 84.9073 11.8796 84.5647 11.8796C82.5092 11.8796 80.9543 13.4081 80.3482 15.3582H80.2955C80.2955 15.3582 80.3482 14.9102 80.3482 14.3568V12.0377H77.871V25.3724Z" fill="#164924"/>
<path d="M86.8838 18.7051C86.8838 22.8425 89.1502 25.6887 92.7605 25.6887C96.0547 25.6887 97.1351 23.2115 97.1351 23.2115H97.1879C97.1879 23.2115 97.1615 23.5804 97.1615 24.1075V25.3724H99.586V6.76712H97.0297V12.9338C97.0297 13.4345 97.0824 13.8298 97.0824 13.8298H97.0297C97.0297 13.8298 96.002 11.7215 92.9186 11.7215C89.3873 11.7215 86.8838 14.4622 86.8838 18.7051ZM89.4927 18.7051C89.4927 15.6745 91.232 13.9352 93.3403 13.9352C95.8702 13.9352 97.1088 16.307 97.1088 18.6787C97.1088 22.0783 95.2377 23.475 93.2612 23.475C91.0476 23.475 89.4927 21.6039 89.4927 18.7051Z" fill="#164924"/>
<path d="M102.658 18.7051C102.658 22.6581 105.531 25.6887 109.721 25.6887C112.91 25.6887 114.886 23.7912 114.886 23.7912L113.832 21.9202C113.832 21.9202 112.172 23.475 109.879 23.475C107.507 23.475 105.425 21.9992 105.294 19.074H115.018C115.018 19.074 115.097 18.3098 115.097 17.9672C115.097 14.5149 113.094 11.7215 109.326 11.7215C105.531 11.7215 102.658 14.4622 102.658 18.7051ZM105.373 17.1503C105.742 14.9629 107.323 13.7507 109.273 13.7507C110.986 13.7507 112.409 14.8575 112.488 17.1503H105.373Z" fill="#164924"/>
<path d="M118.198 25.3724H120.755V19.1267C120.755 18.4679 120.807 17.8618 120.966 17.3347C121.519 15.4109 123.153 14.0669 125.182 14.0669C127.317 14.0669 127.712 15.5427 127.712 17.4138V25.3724H130.268V16.834C130.268 13.4345 128.819 11.7215 125.683 11.7215C122.784 11.7215 121.203 13.6189 120.676 14.7785H120.623C120.623 14.7785 120.676 14.3305 120.676 13.8034V12.0377H118.198V25.3724Z" fill="#164924"/>
<path d="M132.997 23.7385C132.997 23.7385 134.789 25.6887 138.057 25.6887C140.982 25.6887 142.879 24.0284 142.879 21.8148C142.879 17.4401 136.027 17.9672 136.027 15.5691C136.027 14.4095 137.108 13.9352 138.215 13.9352C140.323 13.9352 141.509 15.1211 141.509 15.1211L142.537 13.1973C142.537 13.1973 141.166 11.7215 138.241 11.7215C135.579 11.7215 133.418 13.0919 133.418 15.5164C133.418 19.8646 140.27 19.3639 140.27 21.8148C140.27 22.8952 139.163 23.475 138.057 23.475C135.738 23.475 134.235 21.9202 134.235 21.9202L132.997 23.7385Z" fill="#164924"/>
<path d="M2.12452 22.5006C2.35388 20.533 2.89708 18.662 3.75413 16.8996C3.79034 16.8271 3.74206 16.7426 3.66963 16.7306C2.52287 16.4892 1.38818 16.1512 0.277637 15.7287C0.0965693 16.7909 0 17.8894 0 19.012C0 22.3074 0.844981 25.4097 2.31766 28.1137C2.32973 28.1378 2.36595 28.1257 2.36595 28.1016C1.99174 26.2668 1.90724 24.3716 2.12452 22.5006Z" fill="#8DE995"/>
<path d="M5.4925 15.8373C5.57699 15.8494 5.62528 15.946 5.57699 16.0184L5.25107 16.6099C4.22502 18.4809 3.57318 20.5089 3.31969 22.6455C3.00584 25.2649 3.34383 27.9206 4.26124 30.371C4.27331 30.4072 4.29745 30.4314 4.33366 30.4434C5.42007 30.8297 6.54269 31.0953 7.70152 31.2039C6.36162 28.4879 5.8667 25.3856 6.31333 22.3678C6.5789 20.5692 7.15831 18.8551 8.03951 17.2738C7.21867 16.0305 6.60304 14.7147 6.19262 13.3507C4.51473 13.1817 2.86098 12.7592 1.29173 12.1074C0.989954 12.892 0.73646 13.7008 0.53125 14.5337C1.91943 15.0889 3.36797 15.4873 4.82858 15.7287L5.4925 15.8373Z" fill="#8DE995"/>
<path d="M16.0546 2.19695C17.6238 2.43837 19.1448 2.87294 20.5692 3.50064C20.6416 3.53685 20.7261 3.48856 20.7382 3.41614C20.9313 2.30559 21.209 1.23126 21.559 0.168996C20.7261 0.0603558 19.8691 0 19 0C15.7045 0 12.6143 0.83291 9.91038 2.30559C9.88623 2.31766 9.89831 2.35388 9.92245 2.35388C11.9383 1.95553 14.0146 1.89517 16.0546 2.19695Z" fill="#8DE995"/>
<path d="M35.7306 15.7046C35.5374 17.3704 35.1149 18.9879 34.4631 20.5089C34.4269 20.5934 34.4752 20.6779 34.5597 20.6899C35.6702 20.871 36.7566 21.1486 37.8189 21.4987C37.8309 21.4987 37.843 21.4987 37.843 21.4866C37.9517 20.6779 37.9999 19.845 37.9999 19C37.9999 15.4631 37.0342 12.1436 35.3443 9.30684C35.3322 9.2827 35.296 9.29477 35.296 9.33098C35.8392 11.4072 35.9841 13.568 35.7306 15.7046Z" fill="#8DE995"/>
<path d="M21.7039 5.21473C21.6919 5.29922 21.6074 5.34751 21.5349 5.3113L20.9314 4.99745C19.3621 4.18868 17.6601 3.64548 15.8856 3.37991C13.0851 2.95742 10.2243 3.27127 7.60483 4.2611C7.20648 5.35958 6.94092 6.50634 6.83228 7.66517C9.56036 6.32527 12.6506 5.84243 15.6684 6.28906C17.467 6.55462 19.1811 7.14611 20.7503 8.02731C21.8367 7.30304 22.9956 6.73569 24.2027 6.32527C24.2992 4.53874 24.6855 2.76428 25.3253 1.06225C24.5044 0.772541 23.6474 0.531118 22.7783 0.362122C22.3075 1.71409 21.9816 3.10227 21.8005 4.52667L21.7039 5.21473Z" fill="#8DE995"/>
<path d="M14.0509 21.052C13.8819 16.3684 15.934 11.8417 19.5915 8.88431C19.6277 8.86017 19.6157 8.79981 19.5794 8.78774C18.2878 8.14797 16.9117 7.71341 15.4752 7.49613C12.5299 7.0495 9.50003 7.5927 6.88059 9.00502C6.79609 9.05331 6.7478 9.13781 6.7478 9.22231C6.78402 12.0107 7.65314 14.7992 9.4276 17.2134C10.6468 18.8672 12.204 20.195 13.9543 21.1365C14.0026 21.1365 14.0509 21.1003 14.0509 21.052Z" fill="#8DE995"/>
<path d="M21.8245 22.5127C22.5608 20.6175 22.8867 18.5654 22.7419 16.4892C22.7298 16.3564 22.6453 16.2357 22.5125 16.1753C20.6294 15.439 18.5653 15.113 16.489 15.2579C16.3562 15.27 16.2355 15.3545 16.1752 15.4872C15.4388 17.3824 15.1129 19.4345 15.2578 21.5108C15.2698 21.6435 15.3543 21.7642 15.4871 21.8246C17.3702 22.5609 19.4344 22.8869 21.5106 22.742C21.6555 22.7299 21.7762 22.6454 21.8245 22.5127Z" fill="#8DE995"/>
<path d="M21.1124 24.0579C21.1365 24.0216 21.1003 23.9613 21.052 23.9734C20.883 23.9854 20.702 23.9854 20.533 23.9854C16.0304 23.9854 11.721 21.9454 8.87223 18.4327C8.84809 18.3965 8.78773 18.4086 8.77566 18.4448C8.13589 19.7364 7.70133 21.1125 7.48405 22.549C7.03741 25.5305 7.59269 28.5845 9.04123 31.216C9.06537 31.2523 9.10158 31.2764 9.14987 31.2764C10.3811 31.2643 11.6365 31.0953 12.8557 30.7332C14.4129 30.2745 15.8735 29.5623 17.1893 28.5845C18.843 27.3653 20.1708 25.8082 21.1124 24.0579Z" fill="#8DE995"/>
<path d="M20.8227 9.43958C19.1689 10.6588 17.8532 12.2159 16.8995 13.9663C16.8754 14.0025 16.9116 14.0628 16.9599 14.0508C21.5952 13.8818 26.0857 15.8976 29.0431 19.4828C29.0673 19.519 29.1276 19.5069 29.1397 19.4707C29.7674 18.1791 30.1899 16.7909 30.3951 15.3544C30.8055 12.397 30.2864 9.48786 28.8741 6.88049C28.8258 6.796 28.7413 6.74771 28.6568 6.74771C25.8443 6.80807 23.1282 7.73755 20.8227 9.43958Z" fill="#8DE995"/>
<path d="M32.7853 21.6677C32.7008 21.6556 32.6525 21.5711 32.6887 21.4987L32.9905 20.8951C33.8114 19.2293 34.3304 17.4428 34.5477 15.5717C34.8736 12.8437 34.4994 10.0673 33.4854 7.54442C33.4734 7.5082 33.4492 7.48406 33.413 7.47199C32.6525 7.21849 31.8679 7.02536 31.0591 6.90464C30.8056 6.86843 30.5521 6.83222 30.2987 6.80807C30.2504 6.80807 30.2142 6.85636 30.2383 6.89257C31.542 9.57237 32.0128 12.5177 31.5903 15.5114C31.3368 17.31 30.7694 19.012 29.9124 20.5813C29.9003 20.6054 29.9003 20.6295 29.9124 20.6416C30.6729 21.7642 31.2523 22.9593 31.6748 24.1905C31.6868 24.1905 31.6868 24.1905 31.6989 24.1905C33.4975 24.275 35.2599 24.6372 36.9499 25.2769C37.2396 24.444 37.481 23.587 37.65 22.7058C36.2859 22.235 34.8857 21.9212 33.4492 21.7522L32.7853 21.6677Z" fill="#8DE995"/>
<path d="M23.9732 16.96C24.1301 21.5833 22.1384 26.0617 18.5653 29.0312C18.5291 29.0553 18.5412 29.1157 18.5774 29.1277C19.869 29.7554 21.2572 30.1779 22.7057 30.3831C25.6511 30.7936 28.5602 30.2624 31.1435 28.8622C31.228 28.8139 31.2762 28.7294 31.2762 28.6449C31.2038 25.9168 30.3347 23.1887 28.5965 20.8469C27.3773 19.1932 25.8201 17.8654 24.0698 16.9238C24.0094 16.8755 23.9611 16.9117 23.9732 16.96Z" fill="#8DE995"/>
<path d="M22.3316 35.7186C20.5571 35.5134 18.8309 35.0426 17.2255 34.3304C17.1531 34.2942 17.0686 34.3425 17.0565 34.4149C16.8513 35.5737 16.5616 36.6963 16.1753 37.7948C17.1048 37.9397 18.0463 38.0121 19.012 38.0121C22.573 38.0121 25.9046 37.0343 28.7414 35.3323C28.7655 35.3202 28.7534 35.284 28.7172 35.284C26.641 35.8152 24.4802 35.9721 22.3316 35.7186Z" fill="#8DE995"/>
<path d="M16.1027 32.6162C16.1148 32.5317 16.1993 32.4834 16.2838 32.5197L16.8994 32.8456C18.6377 33.7388 20.5208 34.3062 22.4763 34.5355C25.2165 34.8615 27.9928 34.4752 30.5398 33.4491C30.902 32.3869 31.1313 31.2763 31.2279 30.1537C29.1637 31.1798 26.9306 31.6988 24.637 31.6988C23.9369 31.6988 23.2368 31.6505 22.5367 31.554C20.726 31.3005 19.0119 30.7331 17.4306 29.8761C16.2476 30.6848 14.9681 31.3125 13.6161 31.7471C13.6161 31.7833 13.6161 31.8316 13.604 31.8437C13.5074 33.5698 13.1574 35.2598 12.5417 36.8773C13.3264 37.167 14.1472 37.3964 14.9801 37.5775C15.475 36.1893 15.8251 34.7649 16.0182 33.2922L16.1027 32.6162Z" fill="#8DE995"/>
<path d="M11.4316 36.4428C11.9627 35.0426 12.2765 33.594 12.3852 32.0851C11.2746 32.3386 10.1641 32.4714 9.05355 32.4714C7.70158 32.4714 6.36168 32.2904 5.07007 31.9282C6.84453 33.8355 9.00526 35.3926 11.4316 36.4428Z" fill="#8DE995"/>
<path d="M25.4099 5.97519C27.293 5.51649 29.2606 5.41992 31.2282 5.70963C31.8076 5.79413 32.375 5.91484 32.9302 6.07176C31.1196 4.12831 28.9105 2.55906 26.4239 1.4968C25.8807 2.95741 25.5306 4.4663 25.4099 5.97519Z" fill="#8DE995"/>
<path d="M1.76245 11.0089C3.07821 11.5521 4.46639 11.9142 5.86664 12.1074C5.77008 11.6487 5.69765 11.1779 5.63729 10.7071C5.42001 8.82403 5.57694 6.90471 6.07185 5.08197C4.27325 6.74779 2.80057 8.76367 1.76245 11.0089Z" fill="#8DE995"/>
<path d="M31.9282 32.9422C33.8838 31.1194 35.4651 28.8983 36.5273 26.3875C35.0788 25.8323 33.582 25.5184 32.0248 25.4098C32.6404 27.9085 32.5921 30.5038 31.9282 32.9422Z" fill="#8DE995"/>
</svg>

<svg width="143" height="39" fill="none" xmlns="http://www.w3.org/2000/svg"><path d="m49.513 27.797-.844 2.003c1.292.659 2.952 1.107 4.56 1.107 3.373 0 6.72-1.687 6.72-6.088V12.038h-2.451v1.238c0 .238.026.422.026.422h-.053s-.975-1.976-4.19-1.976c-3.69 0-5.824 2.846-5.824 6.667 0 3.847 2.24 6.825 5.956 6.825 1.924 0 3.162-.764 3.953-2.082h.053s-.027.422-.027.844v.975c0 2.714-1.897 3.742-4.216 3.742-2.003 0-3.663-.896-3.663-.896zm4.4-4.796c-2.398 0-3.873-1.898-3.873-4.665 0-2.714 1.317-4.4 3.636-4.4 2.082 0 3.769 1 3.769 4.48 0 3.478-1.687 4.585-3.532 4.585zM62.868 21.63c0 2.662 2.24 4.059 4.532 4.059a4.613 4.613 0 0 0 4.27-2.636h.052s-.052.448-.052 1.055v1.264h2.371V16.94c0-3.373-1.897-5.217-5.27-5.217-3.057 0-4.981 1.58-4.981 1.58l1.054 1.872s1.66-1.291 3.716-1.291c1.686 0 2.925.737 2.925 2.925v.237h-.58c-2.24 0-8.037.184-8.037 4.585zm2.582-.131c0-2.399 3.479-2.53 5.403-2.53h.659v.421c0 1.977-1.397 4.243-3.558 4.243-1.66 0-2.504-1.054-2.504-2.134zM77.871 25.372h2.556v-5.455c0-.817.08-1.634.316-2.398.607-1.976 2.109-3.136 3.743-3.136.395 0 .737.08.737.08v-2.53s-.316-.053-.658-.053c-2.056 0-3.61 1.528-4.217 3.478h-.052s.052-.448.052-1.001v-2.32h-2.477v13.335zM86.884 18.705c0 4.138 2.266 6.984 5.876 6.984 3.295 0 4.375-2.477 4.375-2.477h.053s-.026.368-.026.896v1.264h2.424V6.767H97.03v6.167c0 .5.052.896.052.896h-.052s-1.028-2.108-4.111-2.108c-3.532 0-6.035 2.74-6.035 6.983zm2.609 0c0-3.03 1.739-4.77 3.847-4.77 2.53 0 3.769 2.372 3.769 4.744 0 3.4-1.871 4.796-3.848 4.796-2.213 0-3.768-1.871-3.768-4.77zM102.658 18.705c0 3.953 2.873 6.984 7.063 6.984 3.189 0 5.165-1.898 5.165-1.898l-1.054-1.87s-1.66 1.554-3.953 1.554c-2.372 0-4.454-1.476-4.585-4.401h9.724s.079-.764.079-1.107c0-3.452-2.003-6.245-5.771-6.245-3.795 0-6.668 2.74-6.668 6.983zm2.715-1.555c.369-2.187 1.95-3.4 3.9-3.4 1.713 0 3.136 1.107 3.215 3.4h-7.115zM118.198 25.372h2.557v-6.245c0-.66.052-1.265.211-1.792.553-1.924 2.187-3.268 4.216-3.268 2.135 0 2.53 1.476 2.53 3.347v7.958h2.556v-8.538c0-3.4-1.449-5.112-4.585-5.112-2.899 0-4.48 1.897-5.007 3.056h-.053s.053-.447.053-.975v-1.765h-2.478v13.334zM132.997 23.738s1.792 1.95 5.06 1.95c2.925 0 4.822-1.66 4.822-3.873 0-4.375-6.852-3.848-6.852-6.246 0-1.16 1.081-1.634 2.188-1.634 2.108 0 3.294 1.186 3.294 1.186l1.028-1.924s-1.371-1.475-4.296-1.475c-2.662 0-4.823 1.37-4.823 3.794 0 4.349 6.852 3.848 6.852 6.299 0 1.08-1.107 1.66-2.213 1.66-2.319 0-3.822-1.555-3.822-1.555l-1.238 1.818z" fill="#164924"/><path d="M2.125 22.5c.229-1.967.772-3.838 1.63-5.6a.12.12 0 0 0-.085-.17A22.703 22.703 0 0 1 .278 15.73 19.541 19.541 0 0 0 0 19.012c0 3.295.845 6.398 2.318 9.102.012.024.048.012.048-.012a17.793 17.793 0 0 1-.241-5.601z" fill="#8DE995"/><path d="M5.492 15.837c.085.012.133.109.085.181l-.326.592a16.543 16.543 0 0 0-1.931 6.035 16.48 16.48 0 0 0 .941 7.726c.012.036.036.06.073.072 1.086.387 2.209.652 3.368.76a15.06 15.06 0 0 1-1.389-8.835 14.894 14.894 0 0 1 1.727-5.094 14.903 14.903 0 0 1-1.847-3.923 17.319 17.319 0 0 1-4.901-1.244 20.238 20.238 0 0 0-.76 2.427c1.387.555 2.836.953 4.297 1.195l.663.108zM16.055 2.197c1.569.241 3.09.676 4.514 1.304a.12.12 0 0 0 .17-.085c.192-1.11.47-2.185.82-3.247A19.808 19.808 0 0 0 19 0c-3.296 0-6.386.833-9.09 2.306-.024.012-.012.048.012.048a18.036 18.036 0 0 1 6.133-.157zM35.73 15.705a17.221 17.221 0 0 1-1.267 4.804c-.036.084.012.169.097.18 1.11.182 2.197.46 3.259.81.012 0 .024 0 .024-.012A18.7 18.7 0 0 0 38 19c0-3.537-.966-6.856-2.656-9.693-.012-.024-.048-.012-.048.024.543 2.076.688 4.237.435 6.374z" fill="#8DE995"/><path d="M21.704 5.215c-.012.084-.097.133-.17.096l-.603-.314a16.247 16.247 0 0 0-5.045-1.617 16.505 16.505 0 0 0-8.281.881 13.782 13.782 0 0 0-.773 3.404 15.068 15.068 0 0 1 8.836-1.376c1.799.266 3.513.857 5.082 1.738a14.81 14.81 0 0 1 3.453-1.702 17.687 17.687 0 0 1 1.122-5.263 18.03 18.03 0 0 0-2.547-.7 20.485 20.485 0 0 0-.977 4.165l-.097.688z" fill="#8DE995"/><path d="M14.05 21.052a14.981 14.981 0 0 1 5.541-12.168c.037-.024.025-.084-.012-.096a13.904 13.904 0 0 0-4.104-1.292 13.802 13.802 0 0 0-8.594 1.509.254.254 0 0 0-.133.217 13.728 13.728 0 0 0 2.68 7.991 13.663 13.663 0 0 0 4.526 3.924c.049 0 .097-.037.097-.085z" fill="#8DE995"/><path d="M21.825 22.513a13.944 13.944 0 0 0 .917-6.024.386.386 0 0 0-.23-.314 13.914 13.914 0 0 0-6.023-.917.385.385 0 0 0-.314.23 13.94 13.94 0 0 0-.917 6.023.385.385 0 0 0 .23.314 13.914 13.914 0 0 0 6.023.917.355.355 0 0 0 .314-.23z" fill="#8DE995"/><path d="M21.112 24.058c.025-.036-.012-.097-.06-.085-.169.012-.35.012-.519.012a15.05 15.05 0 0 1-11.66-5.552c-.025-.037-.085-.024-.097.012a13.904 13.904 0 0 0-1.292 4.104 13.773 13.773 0 0 0 1.557 8.667c.024.036.06.06.109.06a13.5 13.5 0 0 0 3.706-.543 13.735 13.735 0 0 0 4.333-2.149 13.665 13.665 0 0 0 3.923-4.526zM20.823 9.44a13.803 13.803 0 0 0-3.924 4.526c-.024.037.013.097.06.085a14.998 14.998 0 0 1 12.084 5.432c.024.036.085.024.097-.012a13.913 13.913 0 0 0 1.255-4.117c.41-2.957-.109-5.866-1.52-8.474a.254.254 0 0 0-.218-.132 13.64 13.64 0 0 0-7.834 2.692z" fill="#8DE995"/><path d="M32.785 21.668c-.084-.012-.132-.097-.096-.17l.301-.603a16.218 16.218 0 0 0 1.558-5.323 16.38 16.38 0 0 0-1.063-8.028.109.109 0 0 0-.072-.072 13.945 13.945 0 0 0-2.354-.567c-.253-.037-.507-.073-.76-.097-.049 0-.085.048-.06.085a14.793 14.793 0 0 1 1.351 8.618 14.86 14.86 0 0 1-1.678 5.07c-.012.024-.012.049 0 .06a14.974 14.974 0 0 1 1.763 3.55h.024c1.799.084 3.56.446 5.25 1.086.29-.833.532-1.69.701-2.571a19.99 19.99 0 0 0-4.2-.954l-.665-.084zM23.973 16.96a15.059 15.059 0 0 1-5.408 12.071c-.036.024-.024.085.012.097a13.88 13.88 0 0 0 4.129 1.255c2.945.41 5.854-.12 8.438-1.52a.254.254 0 0 0 .132-.218 13.64 13.64 0 0 0-2.68-7.798 13.665 13.665 0 0 0-4.526-3.923c-.06-.049-.109-.012-.097.036zM22.332 35.719a17.59 17.59 0 0 1-5.107-1.389.12.12 0 0 0-.169.085 21.388 21.388 0 0 1-.88 3.38c.929.145 1.87.217 2.836.217 3.561 0 6.893-.978 9.73-2.68.023-.012.011-.048-.025-.048a17.48 17.48 0 0 1-6.385.435z" fill="#8DE995"/><path d="M16.103 32.616c.012-.084.096-.133.18-.096l.616.326a16.34 16.34 0 0 0 5.577 1.69c2.74.325 5.517-.06 8.064-1.087.362-1.062.591-2.173.688-3.295a14.726 14.726 0 0 1-6.591 1.545 15.05 15.05 0 0 1-7.206-1.823 14.742 14.742 0 0 1-3.815 1.871c0 .036 0 .085-.012.097a16.734 16.734 0 0 1-1.062 5.033c.784.29 1.605.52 2.438.7a20.75 20.75 0 0 0 1.038-4.285l.085-.676zM11.432 36.443a15.3 15.3 0 0 0 .953-4.358 14.748 14.748 0 0 1-7.315-.157 19.048 19.048 0 0 0 6.362 4.515zM25.41 5.975a15.187 15.187 0 0 1 5.818-.265c.58.084 1.147.205 1.702.362a19.211 19.211 0 0 0-6.506-4.575 16.704 16.704 0 0 0-1.014 4.478zM1.762 11.009c1.316.543 2.704.905 4.105 1.098-.097-.458-.17-.93-.23-1.4a14.98 14.98 0 0 1 .435-5.625 18.906 18.906 0 0 0-4.31 5.927zM31.928 32.942a19.183 19.183 0 0 0 4.6-6.555 15.486 15.486 0 0 0-4.503-.977 15.016 15.016 0 0 1-.097 7.532z" fill="#8DE995"/></svg>
